X:1
T:Eden (Feilden), 66.66
T:Oswald Mosley Feilden, 1863
T:Eden (Feilden), 66.66
T:Public Domain
C:Oswald Mosley Feilden, 1863
Z:Public Domain
%%score ( 1 2 ) ( 3 4 )
L:1/8
M:4/4
K:Eb
V:1 treble 
V:2 treble 
V:3 bass 
V:4 bass 
V:1
 [EB]2 | [EG]2 [DB]2 [Ee]2 [Ed]2 | [Ec]6 [FB]2 | [EG]2 E2 [EG]2 [E=A]2 | [DB]6 [EB]2 | %5
 [Ec]2 [B,e]2 [Dd]2 [Ec]2 | (F2 D2 E2) [FA]2 | [EG]2 [EB]2 [EF]2 [DF]2 | E6 |] %9
V:2
 x2 | x8 | x8 | x2 E2 x4 | x8 | x8 | B6 x2 | x8 | E6 |] %9
V:3
 [E,G,]2 | [E,B,]2 [F,A,]2 [G,B,]2 [E,G,]2 | A,6 [D,F,]2 | [E,B,]2 [G,B,]2 [C,C]2 [F,C]2 | %4
 [B,,B,]6 [G,B,]2 | A,2 [G,B,]2 [F,A,]2 [E,A,]2 | ([D,F,]2 B,,2 C,2) [D,B,]2 | %7
 [E,B,]2 [G,,B,]2 [A,,C]2 (B,A,) | [E,G,]6 |] %9
V:4
 x2 | x8 | A,6 x2 | x8 | x8 | A,2 x6 | x2 B,4 x2 | x6 B,,2 | x6 |] %9

